src/assets/transitions/homeSpacer2.svg

<svg xmlns="http://www.w3.org/2000/svg" width="900" height="200"><path fill="#93f673" d="m0 43 13.7 2c13.6 2 41 6 68.3 10.7 27.3 4.6 54.7 10 81.8 14.3 27.2 4.3 54.2 7.7 81.4 9.7 27.1 2 54.5 2.6 81.8-.7s54.7-10.7 82-11 54.7 6.3 82 2.7c27.3-3.7 54.7-17.7 82-17.4 27.3.4 54.7 15 81.8 20.7 27.2 5.7 54.2 2.3 81.4-2 27.1-4.3 54.5-9.7 81.8-10s54.7 4.3 68.3 6.7L900 71V0H0Z"/><path fill="#6fc855" d="m0 57 13.7 3.3c13.6 3.4 41 10 68.3 17.4 27.3 7.3 54.7 15.3 81.8 20 27.2 4.6 54.2 6 81.4 5.6 27.1-.3 54.5-2.3 81.8-4.6 27.3-2.4 54.7-5 82-3.4 27.3 1.7 54.7 7.7 82 5.7s54.7-12 82-13 54.7 7 81.8 10.7c27.2 3.6 54.2 3 81.4 2 27.1-1 54.5-2.4 81.8-3.7s54.7-2.7 68.3-3.3L900 93V69l-13.7-2.3c-13.6-2.4-41-7-68.3-6.7s-54.7 5.7-81.8 10c-27.2 4.3-54.2 7.7-81.4 2-27.1-5.7-54.5-20.3-81.8-20.7-27.3-.3-54.7 13.7-82 17.4-27.3 3.6-54.7-3-82-2.7s-54.7 7.7-82 11-54.7 2.7-81.8.7c-27.2-2-54.2-5.4-81.4-9.7-27.1-4.3-54.5-9.7-81.8-14.3C54.7 49 27.3 45 13.7 43L0 41Z"/><path fill="#4c9c38" d="m0 77 13.7 5c13.6 5 41 15 68.3 22s54.7 11 81.8 15c27.2 4 54.2 8 81.4 12.7 27.1 4.6 54.5 10 81.8 8s54.7-11.4 82-12.7 54.7 5.3 82 7 54.7-1.7 82 1 54.7 11.3 81.8 11.7c27.2.3 54.2-7.7 81.4-13.7 27.1-6 54.5-10 81.8-9.3 27.3.6 54.7 6 68.3 8.6L900 135V91l-13.7.7c-13.6.6-41 2-68.3 3.3s-54.7 2.7-81.8 3.7c-27.2 1-54.2 1.6-81.4-2C627.7 93 600.3 85 573 86s-54.7 11-82 13-54.7-4-82-5.7c-27.3-1.6-54.7 1-82 3.4-27.3 2.3-54.7 4.3-81.8 4.6-27.2.4-54.2-1-81.4-5.6C136.7 91 109.3 83 82 75.7c-27.3-7.4-54.7-14-68.3-17.4L0 55Z"/><path fill="#2a721c" d="m0 95 13.7 5c13.6 5 41 15 68.3 24s54.7 17 81.8 20.3c27.2 3.4 54.2 2 81.4 4.4 27.1 2.3 54.5 8.3 81.8 7 27.3-1.4 54.7-10 82-9.7s54.7 9.7 82 10.7 54.7-6.4 82-5.7 54.7 9.3 81.8 12c27.2 2.7 54.2-.7 81.4-4.3 27.1-3.7 54.5-7.7 81.8-9.7s54.7-2 68.3-2H900v-14l-13.7-2.7c-13.6-2.6-41-8-68.3-8.6-27.3-.7-54.7 3.3-81.8 9.3-27.2 6-54.2 14-81.4 13.7-27.1-.4-54.5-9-81.8-11.7s-54.7.7-82-1-54.7-8.3-82-7-54.7 10.7-82 12.7-54.7-3.4-81.8-8C218 125 191 121 163.8 117c-27.1-4-54.5-8-81.8-15S27.3 85 13.7 80L0 75Z"/><path fill="#024b00" d="M0 201h900v-56h-13.7c-13.6 0-41 0-68.3 2s-54.7 6-81.8 9.7c-27.2 3.6-54.2 7-81.4 4.3-27.1-2.7-54.5-11.3-81.8-12s-54.7 6.7-82 5.7-54.7-10.4-82-10.7-54.7 8.3-82 9.7c-27.3 1.3-54.7-4.7-81.8-7-27.2-2.4-54.2-1-81.4-4.4C136.7 139 109.3 131 82 122s-54.7-19-68.3-24L0 93Z"/></svg>

<svg id="visual" viewBox="0 0 900 200" width="900" height="200" xmlns="http://www.w3.org/2000/svg" xmlns:xlink="http://www.w3.org/1999/xlink" version="1.1"><path d="M0 43L13.7 45C27.3 47 54.7 51 82 55.7C109.3 60.3 136.7 65.7 163.8 70C191 74.3 218 77.7 245.2 79.7C272.3 81.7 299.7 82.3 327 79C354.3 75.7 381.7 68.3 409 68C436.3 67.7 463.7 74.3 491 70.7C518.3 67 545.7 53 573 53.3C600.3 53.7 627.7 68.3 654.8 74C682 79.7 709 76.3 736.2 72C763.3 67.7 790.7 62.3 818 62C845.3 61.7 872.7 66.3 886.3 68.7L900 71L900 0L886.3 0C872.7 0 845.3 0 818 0C790.7 0 763.3 0 736.2 0C709 0 682 0 654.8 0C627.7 0 600.3 0 573 0C545.7 0 518.3 0 491 0C463.7 0 436.3 0 409 0C381.7 0 354.3 0 327 0C299.7 0 272.3 0 245.2 0C218 0 191 0 163.8 0C136.7 0 109.3 0 82 0C54.7 0 27.3 0 13.7 0L0 0Z" fill="#93f673"></path><path d="M0 57L13.7 60.3C27.3 63.7 54.7 70.3 82 77.7C109.3 85 136.7 93 163.8 97.7C191 102.3 218 103.7 245.2 103.3C272.3 103 299.7 101 327 98.7C354.3 96.3 381.7 93.7 409 95.3C436.3 97 463.7 103 491 101C518.3 99 545.7 89 573 88C600.3 87 627.7 95 654.8 98.7C682 102.3 709 101.7 736.2 100.7C763.3 99.7 790.7 98.3 818 97C845.3 95.7 872.7 94.3 886.3 93.7L900 93L900 69L886.3 66.7C872.7 64.3 845.3 59.7 818 60C790.7 60.3 763.3 65.7 736.2 70C709 74.3 682 77.7 654.8 72C627.7 66.3 600.3 51.7 573 51.3C545.7 51 518.3 65 491 68.7C463.7 72.3 436.3 65.7 409 66C381.7 66.3 354.3 73.7 327 77C299.7 80.3 272.3 79.7 245.2 77.7C218 75.7 191 72.3 163.8 68C136.7 63.7 109.3 58.3 82 53.7C54.7 49 27.3 45 13.7 43L0 41Z" fill="#6fc855"></path><path d="M0 77L13.7 82C27.3 87 54.7 97 82 104C109.3 111 136.7 115 163.8 119C191 123 218 127 245.2 131.7C272.3 136.3 299.7 141.7 327 139.7C354.3 137.7 381.7 128.3 409 127C436.3 125.7 463.7 132.3 491 134C518.3 135.7 545.7 132.3 573 135C600.3 137.7 627.7 146.3 654.8 146.7C682 147 709 139 736.2 133C763.3 127 790.7 123 818 123.7C845.3 124.3 872.7 129.7 886.3 132.3L900 135L900 91L886.3 91.7C872.7 92.3 845.3 93.7 818 95C790.7 96.3 763.3 97.7 736.2 98.7C709 99.7 682 100.3 654.8 96.7C627.7 93 600.3 85 573 86C545.7 87 518.3 97 491 99C463.7 101 436.3 95 409 93.3C381.7 91.7 354.3 94.3 327 96.7C299.7 99 272.3 101 245.2 101.3C218 101.7 191 100.3 163.8 95.7C136.7 91 109.3 83 82 75.7C54.7 68.3 27.3 61.7 13.7 58.3L0 55Z" fill="#4c9c38"></path><path d="M0 95L13.7 100C27.3 105 54.7 115 82 124C109.3 133 136.7 141 163.8 144.3C191 147.7 218 146.3 245.2 148.7C272.3 151 299.7 157 327 155.7C354.3 154.3 381.7 145.7 409 146C436.3 146.3 463.7 155.7 491 156.7C518.3 157.7 545.7 150.3 573 151C600.3 151.7 627.7 160.3 654.8 163C682 165.7 709 162.3 736.2 158.7C763.3 155 790.7 151 818 149C845.3 147 872.7 147 886.3 147L900 147L900 133L886.3 130.3C872.7 127.7 845.3 122.3 818 121.7C790.7 121 763.3 125 736.2 131C709 137 682 145 654.8 144.7C627.7 144.3 600.3 135.7 573 133C545.7 130.3 518.3 133.7 491 132C463.7 130.3 436.3 123.7 409 125C381.7 126.3 354.3 135.7 327 137.7C299.7 139.7 272.3 134.3 245.2 129.7C218 125 191 121 163.8 117C136.7 113 109.3 109 82 102C54.7 95 27.3 85 13.7 80L0 75Z" fill="#2a721c"></path><path d="M0 201L13.7 201C27.3 201 54.7 201 82 201C109.3 201 136.7 201 163.8 201C191 201 218 201 245.2 201C272.3 201 299.7 201 327 201C354.3 201 381.7 201 409 201C436.3 201 463.7 201 491 201C518.3 201 545.7 201 573 201C600.3 201 627.7 201 654.8 201C682 201 709 201 736.2 201C763.3 201 790.7 201 818 201C845.3 201 872.7 201 886.3 201L900 201L900 145L886.3 145C872.7 145 845.3 145 818 147C790.7 149 763.3 153 736.2 156.7C709 160.3 682 163.7 654.8 161C627.7 158.3 600.3 149.7 573 149C545.7 148.3 518.3 155.7 491 154.7C463.7 153.7 436.3 144.3 409 144C381.7 143.7 354.3 152.3 327 153.7C299.7 155 272.3 149 245.2 146.7C218 144.3 191 145.7 163.8 142.3C136.7 139 109.3 131 82 122C54.7 113 27.3 103 13.7 98L0 93Z" fill="#024b00"></path></svg>
